packages/icons/svg/Instruction_Payment_NoContact_64px.svg

<svg xmlns="http://www.w3.org/2000/svg" viewBox="0 0 64 64"><path d="M57 13H7a2 2 0 00-2 2v34a2 2 0 002 2h50a2 2 0 002-2V15a2 2 0 00-2-2zm-1 35H8V16h48z"/><path d="M13 38h10a1 1 0 001-1V27a1 1 0 00-1-1H13a1 1 0 00-1 1v10a1 1 0 001 1zm1-5h3v3h-3zm8 3h-3v-8h3zm-5-8v3h-3v-3z"/><circle cx="36" cy="32" r="1.5"/><path d="M49 32a11.42 11.42 0 01-3.27 8 1 1 0 000 1.42 1 1 0 00.69.28 1 1 0 00.72-.3 13.47 13.47 0 000-18.84A1 1 0 1045.73 24 11.42 11.42 0 0149 32z"/><path d="M42.38 38.65a1 1 0 001.42 0 9.49 9.49 0 000-13.26 1 1 0 10-1.43 1.4 7.49 7.49 0 010 10.46 1 1 0 00.01 1.4z"/><path d="M39 35.85a1 1 0 00.7.29 1 1 0 00.71-.3 5.48 5.48 0 000-7.68 1 1 0 00-1.41 1.4 3.48 3.48 0 010 4.88 1 1 0 000 1.41z"/></svg>

<svg xmlns="http://www.w3.org/2000/svg" viewBox="0 0 64 64"><defs></defs><g id="Icon"><path  d="M57,13H7a2,2,0,0,0-2,2V49a2,2,0,0,0,2,2H57a2,2,0,0,0,2-2V15A2,2,0,0,0,57,13ZM56,48H8V16H56Z"/><path  d="M13,38H23a1,1,0,0,0,1-1V27a1,1,0,0,0-1-1H13a1,1,0,0,0-1,1V37A1,1,0,0,0,13,38Zm1-5h3v3H14Zm8,3H19V28h3Zm-5-8v3H14V28Z"/><circle  cx="36" cy="32" r="1.5"/><path  d="M49,32a11.42,11.42,0,0,1-3.27,8,1,1,0,0,0,0,1.42,1,1,0,0,0,.69.28,1,1,0,0,0,.72-.3,13.47,13.47,0,0,0,0-18.84A1,1,0,1,0,45.73,24,11.42,11.42,0,0,1,49,32Z"/><path  d="M42.38,38.65a1,1,0,0,0,1.42,0,9.49,9.49,0,0,0,0-13.26,1,1,0,1,0-1.43,1.4,7.49,7.49,0,0,1,0,10.46A1,1,0,0,0,42.38,38.65Z"/><path  d="M39,35.85a1,1,0,0,0,.7.29,1,1,0,0,0,.71-.3,5.48,5.48,0,0,0,0-7.68A1,1,0,0,0,39,29.56a3.48,3.48,0,0,1,0,4.88A1,1,0,0,0,39,35.85Z"/></g></svg>
